build/assets/img/svg/icon-social.svg

<svg width="48" height="48" viewBox="0 0 48 48" fill="none" xmlns="http://www.w3.org/2000/svg">
<path fill-rule="evenodd" clip-rule="evenodd" d="M23.8371 11.8183C22.8693 11.8183 21.9609 12.0668 21.1708 12.5032C20.973 12.6124 20.7241 12.5407 20.6148 12.3428C20.5056 12.145 20.5773 11.8961 20.7752 11.7869C21.6833 11.2853 22.7275 11 23.8371 11C27.3396 11 30.179 13.8394 30.179 17.342C30.179 20.8445 27.3396 23.6839 23.8371 23.6839C20.3345 23.6839 17.4951 20.8445 17.4951 17.342C17.4951 16.096 17.8548 14.9328 18.4763 13.952C18.5972 13.7611 18.85 13.7044 19.0409 13.8254C19.2318 13.9463 19.2885 14.1991 19.1675 14.39C18.6266 15.2436 18.3134 16.2556 18.3134 17.342C18.3134 20.3926 20.7865 22.8656 23.8371 22.8656C26.8877 22.8656 29.3607 20.3926 29.3607 17.342C29.3607 14.2913 26.8877 11.8183 23.8371 11.8183Z" fill="black"/>
<path fill-rule="evenodd" clip-rule="evenodd" d="M33.8123 31.0933C34.2928 30.2533 34.5274 29.3427 34.5396 28.4426C34.5426 28.2172 34.7287 28.0364 34.9553 28.0387C35.1819 28.041 35.363 28.2256 35.36 28.451C35.346 29.4856 35.0761 30.532 34.5251 31.4952C32.786 34.5355 28.9027 35.6057 25.8516 33.8857C22.8005 32.1656 21.7369 28.3066 23.476 25.2663C25.2151 22.226 29.0984 21.1557 32.1495 22.8758C33.2349 23.4877 34.0696 24.3711 34.6154 25.3922C34.7216 25.5909 34.6455 25.8382 34.4454 25.9445C34.2452 26.0508 33.9969 25.9759 33.8906 25.7771C33.4156 24.8884 32.6896 24.1196 31.7432 23.5861C29.0858 22.088 25.7036 23.0201 24.1889 25.6681C22.6741 28.3161 23.6005 31.6772 26.2579 33.1754C28.9154 34.6735 32.2975 33.7413 33.8123 31.0933Z" fill="black"/>
<path fill-rule="evenodd" clip-rule="evenodd" d="M11.2853 27.2204C11.2137 28.1855 11.3943 29.1096 11.7711 29.9294C11.8654 30.1346 11.7754 30.3776 11.57 30.4721C11.3647 30.5666 11.1217 30.4769 11.0274 30.2717C10.5944 29.3294 10.3871 28.2673 10.4691 27.1608C10.7282 23.6678 13.7701 21.0432 17.2634 21.2986C20.7566 21.5539 23.3784 24.5926 23.1193 28.0855C22.8602 31.5785 19.8183 34.2031 16.3251 33.9477C15.0824 33.8569 13.9489 33.4133 13.0167 32.7221C12.8353 32.5876 12.7974 32.3314 12.9322 32.1498C13.0669 31.9683 13.3232 31.9302 13.5047 32.0647C14.316 32.6663 15.3021 33.0525 16.3856 33.1317C19.4281 33.3541 22.0775 31.0681 22.3032 28.0259C22.5288 24.9836 20.2453 22.3371 17.2028 22.1146C14.1603 21.8922 11.5109 24.1782 11.2853 27.2204Z" fill="black"/>
<path d="M25.5667 15.182V13.8828H24.1423C23.468 13.8828 22.9214 14.4197 22.9214 15.082V16.3812H22.1074V17.5804H22.9214V21.3779H24.1423V17.5804H25.1569L25.3632 16.3812H24.1423V15.3818C24.1423 15.2714 24.2334 15.182 24.3458 15.182H25.5667Z" fill="black"/>
<path fill-rule="evenodd" clip-rule="evenodd" d="M18.3787 24.8372C19.8005 24.8372 20.953 25.9897 20.953 27.4115V28.0283C20.953 29.45 19.8005 30.6026 18.3787 30.6026H15.4569C14.0351 30.6026 12.8826 29.45 12.8826 28.0283V27.4115C12.8826 25.9897 14.0351 24.8372 15.4569 24.8372H18.3787ZM16.2713 27.0259V28.7348C16.2713 28.9888 16.5519 29.1427 16.7661 29.0061L18.1057 28.1516C18.304 28.0251 18.304 27.7355 18.1057 27.609L16.7661 26.7546C16.5519 26.618 16.2713 26.7718 16.2713 27.0259Z" fill="#C43B55"/>
<path fill-rule="evenodd" clip-rule="evenodd" d="M12.4978 26.7676C12.4978 25.488 13.5351 24.4507 14.8147 24.4507H19.0237C20.3032 24.4507 21.3406 25.488 21.3406 26.7676V28.6715C21.3406 29.9511 20.3032 30.9884 19.0237 30.9884H14.8147C13.5351 30.9884 12.4978 29.9511 12.4978 28.6715V26.7676ZM14.8147 25.223C13.9616 25.223 13.2701 25.9145 13.2701 26.7676V28.6715C13.2701 29.5246 13.9616 30.2161 14.8147 30.2161H19.0237C19.8767 30.2161 20.5683 29.5246 20.5683 28.6715V26.7676C20.5683 25.9145 19.8767 25.223 19.0237 25.223H14.8147Z" fill="black"/>
<path fill-rule="evenodd" clip-rule="evenodd" d="M16.6288 26.9712C16.586 26.9439 16.5299 26.9747 16.5299 27.0255V28.7343C16.5299 28.7851 16.586 28.8159 16.6288 28.7886L17.9684 27.9342C18.0081 27.9089 18.0081 27.8509 17.9684 27.8256L16.6288 26.9712ZM16.015 27.0255C16.015 26.5681 16.5201 26.2912 16.9057 26.5371L18.2453 27.3916C18.6023 27.6193 18.6023 28.1405 18.2453 28.3682L16.9057 29.2227C16.5201 29.4686 16.015 29.1917 16.015 28.7343V27.0255Z" fill="black"/>
<path fill-rule="evenodd" clip-rule="evenodd" d="M26.1432 26.0313V30.3554L27.1372 31.179H30.7158L31.9086 30.1495V26.2372L30.9146 25.4136H26.9384L26.1432 26.0313ZM27.9325 28.914V27.2667L29.1253 26.649L30.3181 27.4727V28.914L29.1253 29.5317L27.9325 28.914Z" fill="#C43B55"/>
<path fill-rule="evenodd" clip-rule="evenodd" d="M25.757 27.3445C25.757 26.0649 26.7943 25.0276 28.0739 25.0276H29.9778C31.2574 25.0276 32.2947 26.0649 32.2947 27.3445V29.2484C32.2947 30.528 31.2574 31.5653 29.9778 31.5653H28.0739C26.7943 31.5653 25.757 30.528 25.757 29.2484V27.3445ZM28.0739 25.7999C27.2208 25.7999 26.5293 26.4914 26.5293 27.3445V29.2484C26.5293 30.1015 27.2208 30.793 28.0739 30.793H29.9778C30.8308 30.793 31.5224 30.1015 31.5224 29.2484V27.3445C31.5224 26.4914 30.8308 25.7999 29.9778 25.7999H28.0739Z" fill="black"/>
<path fill-rule="evenodd" clip-rule="evenodd" d="M29.0254 29.2538C29.5541 29.2538 29.9827 28.8252 29.9827 28.2965C29.9827 27.7678 29.5541 27.3392 29.0254 27.3392C28.4967 27.3392 28.0681 27.7678 28.0681 28.2965C28.0681 28.8252 28.4967 29.2538 29.0254 29.2538ZM29.0254 30.0261C29.9806 30.0261 30.755 29.2518 30.755 28.2965C30.755 27.3413 29.9806 26.5669 29.0254 26.5669C28.0702 26.5669 27.2958 27.3413 27.2958 28.2965C27.2958 29.2518 28.0702 30.0261 29.0254 30.0261Z" fill="black"/>
<path d="M31.0433 26.5668C31.0433 26.726 30.9143 26.8551 30.7551 26.8551C30.5959 26.8551 30.4668 26.726 30.4668 26.5668C30.4668 26.4076 30.5959 26.2786 30.7551 26.2786C30.9143 26.2786 31.0433 26.4076 31.0433 26.5668Z" fill="black"/>
</svg>

<svg width="48" height="48" fill="none" xmlns="http://www.w3.org/2000/svg"><path fill-rule="evenodd" clip-rule="evenodd" d="M23.837 11.818c-.968 0-1.876.249-2.666.685a.41.41 0 01-.396-.716 6.342 6.342 0 11-2.299 2.165.41.41 0 11.692.438 5.524 5.524 0 104.67-2.572z" fill="#000"/><path fill-rule="evenodd" clip-rule="evenodd" d="M33.812 31.093c.48-.84.715-1.75.728-2.65a.41.41 0 01.82.008 6.287 6.287 0 01-.835 3.044 6.39 6.39 0 01-8.673 2.39 6.294 6.294 0 01-2.376-8.619 6.39 6.39 0 018.674-2.39 6.283 6.283 0 012.465 2.516.41.41 0 01-.725.385 5.468 5.468 0 00-2.147-2.19 5.565 5.565 0 00-7.554 2.081 5.482 5.482 0 002.069 7.507 5.566 5.566 0 007.554-2.082z" fill="#000"/><path fill-rule="evenodd" clip-rule="evenodd" d="M11.285 27.22a5.51 5.51 0 00.486 2.71.41.41 0 01-.744.342 6.35 6.35 0 016.236-8.973 6.334 6.334 0 015.856 6.787 6.35 6.35 0 01-10.102 4.636.409.409 0 11.488-.657 5.53 5.53 0 008.799-4.039 5.517 5.517 0 00-5.101-5.911 5.53 5.53 0 00-5.918 5.105z" fill="#000"/><path d="M25.567 15.182v-1.3h-1.425a1.21 1.21 0 00-1.22 1.2v1.3h-.815v1.198h.814v3.798h1.221V17.58h1.015l.206-1.199h-1.22v-1a.2.2 0 01.203-.199h1.22z" fill="#000"/><path fill-rule="evenodd" clip-rule="evenodd" d="M18.379 24.837a2.574 2.574 0 012.574 2.575v.616a2.574 2.574 0 01-2.574 2.575h-2.922a2.574 2.574 0 01-2.574-2.575v-.616a2.574 2.574 0 012.574-2.575h2.922zm-2.108 2.189v1.709c0 .254.28.408.495.271l1.34-.854a.322.322 0 000-.543l-1.34-.854a.322.322 0 00-.495.27z" fill="#C43B55"/><path fill-rule="evenodd" clip-rule="evenodd" d="M12.498 26.768a2.317 2.317 0 012.317-2.317h4.209a2.317 2.317 0 012.317 2.317v1.904a2.317 2.317 0 01-2.317 2.316h-4.21a2.317 2.317 0 01-2.316-2.316v-1.904zm2.317-1.545c-.853 0-1.545.692-1.545 1.545v1.904c0 .853.692 1.544 1.545 1.544h4.209c.853 0 1.544-.691 1.544-1.544v-1.904c0-.854-.691-1.545-1.544-1.545h-4.21z" fill="#000"/><path fill-rule="evenodd" clip-rule="evenodd" d="M16.629 26.971a.064.064 0 00-.1.055v1.708c0 .051.057.082.1.055l1.34-.855a.064.064 0 000-.108l-1.34-.855zm-.614.055a.58.58 0 01.89-.489l1.34.855a.58.58 0 010 .976l-1.34.855a.58.58 0 01-.89-.489v-1.709z" fill="#000"/><path fill-rule="evenodd" clip-rule="evenodd" d="M26.143 26.031v4.324l.994.824h3.579l1.193-1.03v-3.912l-.994-.823h-3.977l-.795.617zm1.79 2.883v-1.647l1.192-.618 1.193.824v1.441l-1.193.618-1.192-.618z" fill="#C43B55"/><path fill-rule="evenodd" clip-rule="evenodd" d="M25.757 27.345a2.317 2.317 0 012.317-2.317h1.904a2.317 2.317 0 012.317 2.317v1.903a2.317 2.317 0 01-2.317 2.317h-1.904a2.317 2.317 0 01-2.317-2.317v-1.904zm2.317-1.545c-.853 0-1.545.691-1.545 1.544v1.904c0 .854.692 1.545 1.545 1.545h1.904c.853 0 1.544-.691 1.544-1.545v-1.904c0-.853-.691-1.544-1.544-1.544h-1.904z" fill="#000"/><path fill-rule="evenodd" clip-rule="evenodd" d="M29.025 29.254a.957.957 0 100-1.915.957.957 0 000 1.915zm0 .772a1.73 1.73 0 100-3.46 1.73 1.73 0 000 3.46z" fill="#000"/><path d="M31.043 26.567a.288.288 0 11-.576 0 .288.288 0 01.576 0z" fill="#000"/></svg>
